icons/chevron-up.svg

<?xml version="1.0" standalone="no"?><!-- Generator: Gravit.io --><svg xmlns="http://www.w3.org/2000/svg" xmlns:xlink="http://www.w3.org/1999/xlink" width="96" height="96"><path d=" M 90.8 64.94999999999999 L 51.69999999999999 25.75 L 47.999999999999986 24.25 L 44.29999999999998 25.75 L 5.199999999999994 64.95 C 4.399999999999994 65.65 3.999999999999994 66.65 3.9999999999999942 67.75 C 3.9999999999999942 68.85 4.399999999999995 69.85 5.199999999999995 70.55 C 5.899999999999995 71.35 6.899999999999995 71.75 7.999999999999995 71.75 C 9.099999999999994 71.75 10.099999999999994 71.35 10.799999999999995 70.55 L 47.99999999999999 33.45 L 85.2 70.54999999999998 C 85.9 71.35 86.9 71.75 88 71.74999999999999 C 89.1 71.74999999999999 90.1 71.35 90.8 70.54999999999998 C 91.6 69.85 92 68.85 92 67.74999999999999 C 92 66.64999999999998 91.6 65.64999999999998 90.8 64.94999999999999 Z " fill="#454545" stroke="none"/><mask id="_mask_bkbNUAFlbIAzxYCOXYMK3CSIsbo3BPhH"><path d=" M 90.8 64.94999999999999 L 51.69999999999999 25.75 L 47.999999999999986 24.25 L 44.29999999999998 25.75 L 5.199999999999994 64.95 C 4.399999999999994 65.65 3.999999999999994 66.65 3.9999999999999942 67.75 C 3.9999999999999942 68.85 4.399999999999995 69.85 5.199999999999995 70.55 C 5.899999999999995 71.35 6.899999999999995 71.75 7.999999999999995 71.75 C 9.099999999999994 71.75 10.099999999999994 71.35 10.799999999999995 70.55 L 47.99999999999999 33.45 L 85.2 70.54999999999998 C 85.9 71.35 86.9 71.75 88 71.74999999999999 C 89.1 71.74999999999999 90.1 71.35 90.8 70.54999999999998 C 91.6 69.85 92 68.85 92 67.74999999999999 C 92 66.64999999999998 91.6 65.64999999999998 90.8 64.94999999999999 Z " fill="white" stroke="none"/></mask><path d=" M 90.8 64.94999999999999 L 51.69999999999999 25.75 L 47.999999999999986 24.25 L 44.29999999999998 25.75 L 5.199999999999994 64.95 C 4.399999999999994 65.65 3.999999999999994 66.65 3.9999999999999942 67.75 C 3.9999999999999942 68.85 4.399999999999995 69.85 5.199999999999995 70.55 C 5.899999999999995 71.35 6.899999999999995 71.75 7.999999999999995 71.75 C 9.099999999999994 71.75 10.099999999999994 71.35 10.799999999999995 70.55 L 47.99999999999999 33.45 L 85.2 70.54999999999998 C 85.9 71.35 86.9 71.75 88 71.74999999999999 C 89.1 71.74999999999999 90.1 71.35 90.8 70.54999999999998 C 91.6 69.85 92 68.85 92 67.74999999999999 C 92 66.64999999999998 91.6 65.64999999999998 90.8 64.94999999999999 Z " fill="none" stroke="none" stroke-width="16" mask="url(#_mask_bkbNUAFlbIAzxYCOXYMK3CSIsbo3BPhH)"/></svg>

<svg xmlns="http://www.w3.org/2000/svg" width="96" height="96"><path d="M90.8 64.95l-39.1-39.2-3.7-1.5-3.7 1.5-39.1 39.2c-.8.7-1.2 1.7-1.2 2.8 0 1.1.4 2.1 1.2 2.8.7.8 1.7 1.2 2.8 1.2 1.1 0 2.1-.4 2.8-1.2L48 33.45l37.2 37.1c.7.8 1.7 1.2 2.8 1.2 1.1 0 2.1-.4 2.8-1.2.8-.7 1.2-1.7 1.2-2.8 0-1.1-.4-2.1-1.2-2.8z" fill="#454545"/></svg>
